icons/pr.svg

<?xml version="1.0" ?>
<svg xmlns="http://www.w3.org/2000/svg" xmlns:ev="http://www.w3.org/2001/xml-events" xmlns:xlink="http://www.w3.org/1999/xlink" baseProfile="full" height="211px" version="1.1" viewBox="-1024.4928134068227 2955.5851471446754 12292.610620834876 4321.801670480236" width="600px">
	<defs/>
	<path d="M 930.0,6900.0 C 847.0,6887.0 827.0,6880.0 782.0,6847.0 C 753.0,6825.0 724.0,6801.0 717.0,6791.0 C 711.0,6782.0 690.0,6768.0 671.0,6760.0 C 621.0,6740.0 605.0,6695.0 625.0,6628.0 C 633.0,6600.0 649.0,6562.0 659.0,6544.0 C 683.0,6504.0 699.0,6418.0 693.0,6368.0 C 687.0,6326.0 659.0,6300.0 574.0,6257.0 C 546.0,6243.0 510.0,6217.0 494.0,6200.0 C 462.0,6165.0 341.0,6105.0 282.0,6094.0 C 262.0,6090.0 215.0,6074.0 178.0,6058.0 C 141.0,6043.0 90.0,6027.0 65.0,6023.0 C 2.0,6015.0 -7.0,6001.0 15.0,5944.0 C 24.0,5920.0 42.0,5887.0 55.0,5872.0 C 67.0,5857.0 104.0,5794.0 136.0,5731.0 C 202.0,5604.0 230.0,5580.0 316.0,5580.0 C 410.0,5580.0 485.0,5517.0 505.0,5420.0 C 509.0,5401.0 527.0,5363.0 546.0,5335.0 C 568.0,5302.0 583.0,5264.0 590.0,5225.0 C 603.0,5150.0 616.0,5120.0 633.0,5120.0 C 651.0,5120.0 682.0,5086.0 673.0,5076.0 C 669.0,5073.0 676.0,5063.0 688.0,5054.0 C 703.0,5044.0 710.0,5028.0 710.0,5007.0 C 710.0,4982.0 698.0,4964.0 648.0,4915.0 C 563.0,4833.0 519.0,4775.0 526.0,4756.0 C 529.0,4747.0 538.0,4740.0 546.0,4740.0 C 568.0,4740.0 563.0,4670.0 539.0,4631.0 C 524.0,4606.0 521.0,4591.0 528.0,4576.0 C 533.0,4564.0 535.0,4525.0 532.0,4488.0 C 527.0,4417.0 517.0,4398.0 456.0,4357.0 C 436.0,4343.0 431.0,4333.0 436.0,4316.0 C 439.0,4303.0 437.0,4289.0 431.0,4286.0 C 408.0,4271.0 422.0,4252.0 471.0,4232.0 C 528.0,4208.0 531.0,4191.0 480.0,4174.0 C 435.0,4159.0 417.0,4133.0 424.0,4090.0 C 429.0,4061.0 425.0,4050.0 398.0,4023.0 L 367.0,3991.0 L 396.0,3985.0 C 412.0,3982.0 444.0,3970.0 468.0,3959.0 C 491.0,3949.0 519.0,3940.0 529.0,3940.0 C 552.0,3940.0 600.0,3903.0 600.0,3885.0 C 600.0,3862.0 540.0,3821.0 482.0,3804.0 C 409.0,3783.0 367.0,3751.0 353.0,3706.0 C 337.0,3653.0 367.0,3564.0 420.0,3510.0 C 444.0,3485.0 450.0,3471.0 450.0,3436.0 C 450.0,3395.0 452.0,3391.0 490.0,3372.0 C 537.0,3349.0 542.0,3360.0 510.0,3412.0 C 482.0,3458.0 485.0,3491.0 519.0,3525.0 C 545.0,3549.0 555.0,3552.0 590.0,3547.0 C 613.0,3544.0 648.0,3530.0 669.0,3516.0 C 691.0,3500.0 720.0,3490.0 741.0,3490.0 C 759.0,3490.0 793.0,3484.0 815.0,3476.0 C 837.0,3468.0 900.0,3459.0 955.0,3455.0 C 1048.0,3449.0 1057.0,3450.0 1083.0,3470.0 C 1098.0,3482.0 1110.0,3498.0 1110.0,3505.0 C 1110.0,3513.0 1123.0,3520.0 1143.0,3522.0 C 1167.0,3524.0 1176.0,3530.0 1178.0,3546.0 C 1183.0,3584.0 1212.0,3600.0 1276.0,3600.0 C 1496.0,3600.0 1559.0,3595.0 1582.0,3574.0 C 1621.0,3538.0 1637.0,3538.0 1644.0,3571.0 C 1649.0,3597.0 1653.0,3600.0 1672.0,3595.0 C 1726.0,3580.0 1740.0,3567.0 1740.0,3535.0 C 1740.0,3496.0 1748.0,3489.0 1842.0,3441.0 C 1895.0,3414.0 1915.0,3398.0 1915.0,3384.0 C 1915.0,3368.0 1924.0,3364.0 1970.0,3359.0 C 2000.0,3355.0 2038.0,3347.0 2055.0,3341.0 C 2088.0,3327.0 2130.0,3334.0 2130.0,3353.0 C 2130.0,3372.0 2109.0,3390.0 2088.0,3390.0 C 2048.0,3390.0 2072.0,3419.0 2124.0,3434.0 C 2198.0,3456.0 2201.0,3472.0 2140.0,3533.0 C 2113.0,3560.0 2090.0,3587.0 2090.0,3591.0 C 2090.0,3606.0 2108.0,3601.0 2137.0,3576.0 C 2153.0,3563.0 2177.0,3550.0 2190.0,3548.0 C 2211.0,3546.0 2215.0,3539.0 2215.0,3513.0 C 2215.0,3462.0 2229.0,3455.0 2309.0,3468.0 C 2443.0,3491.0 2468.0,3483.0 2439.0,3429.0 C 2429.0,3410.0 2430.0,3410.0 2449.0,3420.0 C 2460.0,3426.0 2477.0,3444.0 2485.0,3460.0 C 2503.0,3495.0 2531.0,3499.0 2584.0,3473.0 C 2629.0,3452.0 2674.0,3464.0 2780.0,3525.0 C 2821.0,3548.0 2872.0,3573.0 2892.0,3580.0 C 2934.0,3593.0 2960.0,3623.0 2960.0,3657.0 C 2960.0,3685.0 2956.0,3685.0 2922.0,3660.0 C 2884.0,3632.0 2830.0,3622.0 2830.0,3643.0 C 2830.0,3652.0 2840.0,3660.0 2853.0,3662.0 C 2867.0,3664.0 2876.0,3672.0 2876.0,3685.0 C 2877.0,3696.0 2878.0,3710.0 2879.0,3716.0 C 2880.0,3722.0 2897.0,3730.0 2919.0,3734.0 C 2940.0,3737.0 2963.0,3746.0 2970.0,3755.0 C 2976.0,3763.0 3001.0,3780.0 3025.0,3794.0 C 3068.0,3817.0 3069.0,3817.0 3086.0,3799.0 C 3097.0,3786.0 3110.0,3782.0 3126.0,3786.0 C 3157.0,3794.0 3157.0,3777.0 3126.0,3760.0 C 3104.0,3749.0 3103.0,3745.0 3116.0,3733.0 C 3134.0,3714.0 3134.0,3691.0 3114.0,3669.0 C 3104.0,3658.0 3101.0,3646.0 3107.0,3636.0 C 3117.0,3618.0 3130.0,3626.0 3150.0,3663.0 C 3173.0,3709.0 3212.0,3723.0 3297.0,3718.0 C 3357.0,3714.0 3374.0,3709.0 3386.0,3692.0 C 3403.0,3668.0 3517.0,3610.0 3549.0,3610.0 C 3561.0,3610.0 3587.0,3603.0 3608.0,3594.0 C 3658.0,3572.0 3699.0,3576.0 3730.0,3605.0 C 3779.0,3652.0 3914.0,3676.0 3956.0,3646.0 C 3969.0,3636.0 3975.0,3619.0 3975.0,3593.0 C 3975.0,3560.0 3978.0,3555.0 4001.0,3552.0 C 4015.0,3550.0 4032.0,3556.0 4040.0,3564.0 C 4056.0,3584.0 4126.0,3585.0 4164.0,3565.0 C 4179.0,3557.0 4202.0,3550.0 4214.0,3550.0 C 4239.0,3550.0 4359.0,3587.0 4374.0,3599.0 C 4380.0,3604.0 4408.0,3611.0 4435.0,3615.0 C 4463.0,3619.0 4532.0,3639.0 4590.0,3660.0 C 4735.0,3714.0 4787.0,3724.0 4814.0,3707.0 C 4827.0,3698.0 4843.0,3696.0 4855.0,3701.0 C 4898.0,3718.0 4946.0,3711.0 4979.0,3683.0 C 5034.0,3635.0 5064.0,3604.0 5098.0,3562.0 C 5129.0,3523.0 5135.0,3520.0 5181.0,3520.0 C 5208.0,3520.0 5230.0,3516.0 5230.0,3510.0 C 5230.0,3505.0 5245.0,3493.0 5263.0,3485.0 C 5280.0,3476.0 5318.0,3456.0 5345.0,3440.0 C 5373.0,3424.0 5399.0,3410.0 5403.0,3410.0 C 5408.0,3410.0 5433.0,3433.0 5460.0,3460.0 C 5487.0,3488.0 5513.0,3510.0 5519.0,3510.0 C 5525.0,3510.0 5530.0,3524.0 5530.0,3540.0 C 5530.0,3570.0 5536.0,3574.0 5576.0,3571.0 C 5587.0,3570.0 5613.0,3583.0 5634.0,3600.0 C 5668.0,3626.0 5681.0,3630.0 5736.0,3630.0 C 5793.0,3630.0 5801.0,3627.0 5822.0,3601.0 C 5835.0,3585.0 5870.0,3553.0 5900.0,3529.0 C 5930.0,3506.0 5962.0,3478.0 5971.0,3467.0 C 5984.0,3451.0 5994.0,3449.0 6024.0,3454.0 C 6054.0,3460.0 6077.0,3455.0 6138.0,3430.0 C 6239.0,3387.0 6293.0,3392.0 6353.0,3450.0 C 6376.0,3472.0 6399.0,3490.0 6405.0,3490.0 C 6411.0,3490.0 6427.0,3501.0 6440.0,3515.0 C 6453.0,3529.0 6467.0,3540.0 6472.0,3540.0 C 6477.0,3540.0 6510.0,3527.0 6545.0,3510.0 C 6580.0,3494.0 6621.0,3480.0 6635.0,3480.0 C 6672.0,3480.0 6677.0,3455.0 6644.0,3427.0 C 6620.0,3406.0 6611.0,3404.0 6581.0,3412.0 C 6561.0,3417.0 6525.0,3424.0 6501.0,3427.0 C 6462.0,3432.0 6457.0,3431.0 6463.0,3416.0 C 6467.0,3406.0 6470.0,3381.0 6470.0,3359.0 C 6470.0,3338.0 6474.0,3320.0 6478.0,3320.0 C 6483.0,3320.0 6507.0,3333.0 6531.0,3350.0 C 6582.0,3384.0 6633.0,3388.0 6720.0,3365.0 C 6799.0,3344.0 6825.0,3346.0 6862.0,3379.0 C 6907.0,3418.0 6954.0,3440.0 7021.0,3456.0 C 7056.0,3464.0 7108.0,3488.0 7152.0,3517.0 C 7218.0,3560.0 7230.0,3564.0 7278.0,3562.0 C 7311.0,3561.0 7342.0,3553.0 7358.0,3542.0 C 7433.0,3490.0 7471.0,3484.0 7490.0,3521.0 C 7496.0,3531.0 7506.0,3537.0 7514.0,3534.0 C 7521.0,3531.0 7538.0,3546.0 7553.0,3569.0 C 7568.0,3592.0 7599.0,3619.0 7622.0,3631.0 C 7660.0,3650.0 7668.0,3651.0 7724.0,3640.0 C 7817.0,3622.0 7820.0,3620.0 7830.0,3594.0 C 7842.0,3564.0 7870.0,3563.0 7896.0,3591.0 C 7912.0,3609.0 7922.0,3611.0 7968.0,3605.0 C 8002.0,3601.0 8062.0,3605.0 8128.0,3615.0 C 8278.0,3638.0 8272.0,3636.0 8324.0,3675.0 C 8362.0,3705.0 8378.0,3711.0 8410.0,3709.0 C 8447.0,3706.0 8452.0,3709.0 8477.0,3745.0 C 8514.0,3800.0 8528.0,3809.0 8579.0,3810.0 C 8605.0,3810.0 8636.0,3818.0 8657.0,3831.0 C 8679.0,3845.0 8701.0,3851.0 8721.0,3848.0 C 8757.0,3842.0 8775.0,3867.0 8766.0,3911.0 C 8763.0,3927.0 8765.0,3940.0 8772.0,3942.0 C 8780.0,3945.0 8779.0,3953.0 8771.0,3969.0 C 8754.0,4001.0 8766.0,4064.0 8797.0,4101.0 C 8835.0,4146.0 8855.0,4153.0 8888.0,4136.0 C 8945.0,4106.0 8976.0,4137.0 8987.0,4235.0 C 8994.0,4294.0 9005.0,4320.0 9025.0,4320.0 C 9035.0,4320.0 9038.0,4328.0 9034.0,4348.0 C 9030.0,4369.0 9037.0,4386.0 9065.0,4423.0 C 9090.0,4456.0 9099.0,4476.0 9094.0,4488.0 C 9077.0,4527.0 9098.0,4574.0 9175.0,4671.0 C 9216.0,4722.0 9237.0,4739.0 9270.0,4749.0 C 9303.0,4759.0 9315.0,4769.0 9328.0,4798.0 C 9377.0,4906.0 9449.0,4944.0 9522.0,4901.0 C 9539.0,4890.0 9558.0,4883.0 9562.0,4886.0 C 9567.0,4890.0 9580.0,4884.0 9590.0,4875.0 C 9611.0,4856.0 9625.0,4869.0 9615.0,4901.0 C 9605.0,4931.0 9642.0,4966.0 9706.0,4986.0 C 9736.0,4995.0 9765.0,5009.0 9771.0,5016.0 C 9787.0,5036.0 9824.0,5033.0 9862.0,5010.0 C 9906.0,4983.0 9911.0,4984.0 9954.0,5025.0 C 9985.0,5054.0 9989.0,5063.0 9980.0,5080.0 C 9974.0,5091.0 9962.0,5100.0 9954.0,5100.0 C 9939.0,5100.0 9940.0,5110.0 9961.0,5166.0 C 9972.0,5196.0 10015.0,5202.0 10045.0,5178.0 C 10059.0,5167.0 10070.0,5152.0 10070.0,5144.0 C 10070.0,5136.0 10077.0,5130.0 10085.0,5130.0 C 10094.0,5130.0 10100.0,5121.0 10100.0,5106.0 C 10100.0,5075.0 10116.0,5064.0 10136.0,5081.0 C 10147.0,5090.0 10150.0,5103.0 10146.0,5125.0 C 10138.0,5167.0 10146.0,5172.0 10188.0,5154.0 C 10216.0,5142.0 10225.0,5142.0 10232.0,5152.0 C 10243.0,5171.0 10242.0,5180.0 10228.0,5180.0 C 10191.0,5181.0 10122.0,5290.0 10133.0,5330.0 C 10139.0,5352.0 10137.0,5352.0 10091.0,5347.0 C 10046.0,5342.0 10032.0,5346.0 9992.0,5376.0 C 9990.0,5377.0 9994.0,5389.0 10001.0,5401.0 C 10008.0,5414.0 10014.0,5439.0 10016.0,5458.0 C 10018.0,5487.0 10015.0,5491.0 9989.0,5497.0 C 9973.0,5500.0 9960.0,5504.0 9960.0,5507.0 C 9960.0,5518.0 9990.0,5568.0 10004.0,5579.0 C 10027.0,5598.0 10021.0,5788.0 9997.0,5802.0 C 9988.0,5807.0 9980.0,5822.0 9980.0,5835.0 C 9980.0,5848.0 9974.0,5860.0 9968.0,5863.0 C 9960.0,5866.0 9971.0,5884.0 9998.0,5912.0 C 10021.0,5936.0 10040.0,5960.0 10040.0,5965.0 C 10040.0,5969.0 10047.0,5981.0 10056.0,5991.0 C 10065.0,6001.0 10075.0,6023.0 10080.0,6042.0 C 10084.0,6060.0 10091.0,6082.0 10094.0,6091.0 C 10099.0,6103.0 10093.0,6111.0 10071.0,6120.0 C 10034.0,6135.0 10010.0,6121.0 10010.0,6085.0 C 10010.0,6041.0 9947.0,6010.0 9937.0,6050.0 C 9929.0,6079.0 9895.0,6075.0 9868.0,6041.0 C 9826.0,5989.0 9737.0,5960.0 9724.0,5995.0 C 9720.0,6005.0 9703.0,6009.0 9662.0,6008.0 C 9588.0,6006.0 9494.0,6046.0 9484.0,6084.0 C 9481.0,6097.0 9472.0,6111.0 9464.0,6114.0 C 9456.0,6117.0 9450.0,6126.0 9450.0,6135.0 C 9450.0,6156.0 9413.0,6154.0 9401.0,6131.0 C 9395.0,6121.0 9378.0,6107.0 9362.0,6101.0 C 9325.0,6085.0 9293.0,6098.0 9243.0,6147.0 C 9222.0,6168.0 9191.0,6190.0 9175.0,6195.0 C 9149.0,6204.0 9145.0,6211.0 9142.0,6249.0 C 9139.0,6291.0 9138.0,6292.0 9109.0,6286.0 C 9092.0,6283.0 9066.0,6271.0 9050.0,6260.0 C 9019.0,6238.0 8990.0,6234.0 8990.0,6251.0 C 8990.0,6257.0 9001.0,6276.0 9016.0,6295.0 C 9045.0,6334.0 9031.0,6354.0 8997.0,6322.0 C 8985.0,6311.0 8960.0,6295.0 8943.0,6286.0 C 8914.0,6271.0 8907.0,6271.0 8875.0,6284.0 C 8856.0,6292.0 8840.0,6306.0 8840.0,6314.0 C 8840.0,6323.0 8834.0,6330.0 8826.0,6330.0 C 8819.0,6330.0 8797.0,6347.0 8778.0,6368.0 C 8743.0,6407.0 8727.0,6412.0 8540.0,6440.0 C 8504.0,6445.0 8462.0,6462.0 8418.0,6489.0 C 8349.0,6531.0 8310.0,6541.0 8310.0,6516.0 C 8310.0,6482.0 8104.0,6494.0 7986.0,6535.0 C 7892.0,6567.0 7796.0,6570.0 7780.0,6540.0 C 7764.0,6510.0 7714.0,6489.0 7665.0,6491.0 C 7640.0,6493.0 7617.0,6491.0 7614.0,6487.0 C 7606.0,6479.0 7542.0,6505.0 7519.0,6526.0 C 7508.0,6535.0 7477.0,6542.0 7433.0,6544.0 C 7380.0,6546.0 7353.0,6553.0 7318.0,6574.0 C 7262.0,6607.0 7150.0,6635.0 7042.0,6644.0 L 6959.0,6651.0 L 6977.0,6626.0 C 7006.0,6587.0 7030.0,6576.0 7047.0,6593.0 C 7055.0,6601.0 7072.0,6605.0 7084.0,6603.0 C 7102.0,6599.0 7106.0,6593.0 7103.0,6575.0 C 7099.0,6558.0 7107.0,6546.0 7133.0,6525.0 C 7153.0,6511.0 7177.0,6500.0 7188.0,6502.0 C 7210.0,6506.0 7240.0,6484.0 7240.0,6464.0 C 7240.0,6456.0 7232.0,6450.0 7221.0,6450.0 C 7211.0,6450.0 7182.0,6439.0 7156.0,6425.0 C 7095.0,6392.0 7086.0,6393.0 7072.0,6434.0 C 7060.0,6466.0 7057.0,6468.0 7017.0,6467.0 C 6963.0,6465.0 6916.0,6492.0 6925.0,6520.0 C 6928.0,6531.0 6926.0,6548.0 6920.0,6560.0 C 6907.0,6585.0 6855.0,6587.0 6829.0,6564.0 C 6820.0,6556.0 6783.0,6544.0 6748.0,6538.0 C 6669.0,6524.0 6639.0,6539.0 6621.0,6601.0 C 6611.0,6632.0 6606.0,6639.0 6596.0,6631.0 C 6587.0,6623.0 6537.0,6623.0 6429.0,6629.0 C 6265.0,6639.0 6262.0,6640.0 6183.0,6677.0 C 6129.0,6703.0 6082.0,6702.0 6050.0,6675.0 C 6023.0,6652.0 5992.0,6649.0 5955.0,6665.0 C 5934.0,6673.0 5897.0,6680.0 5871.0,6680.0 C 5846.0,6680.0 5796.0,6689.0 5760.0,6701.0 C 5722.0,6713.0 5683.0,6719.0 5666.0,6716.0 C 5650.0,6712.0 5632.0,6714.0 5626.0,6719.0 C 5592.0,6745.0 5355.0,6763.0 5225.0,6749.0 C 5067.0,6731.0 5073.0,6733.0 5039.0,6685.0 C 5022.0,6661.0 4996.0,6637.0 4981.0,6632.0 C 4951.0,6622.0 4849.0,6632.0 4805.0,6650.0 C 4789.0,6657.0 4739.0,6666.0 4695.0,6671.0 C 4651.0,6676.0 4597.0,6690.0 4574.0,6700.0 C 4552.0,6711.0 4513.0,6720.0 4487.0,6720.0 C 4462.0,6720.0 4416.0,6729.0 4387.0,6740.0 C 4338.0,6758.0 4330.0,6759.0 4305.0,6746.0 C 4259.0,6722.0 4182.0,6715.0 4162.0,6733.0 C 4153.0,6742.0 4107.0,6758.0 4060.0,6771.0 C 3960.0,6797.0 3842.0,6794.0 3809.0,6764.0 C 3793.0,6750.0 3777.0,6748.0 3710.0,6753.0 C 3631.0,6758.0 3629.0,6758.0 3600.0,6729.0 C 3573.0,6702.0 3568.0,6700.0 3516.0,6706.0 C 3464.0,6712.0 3462.0,6711.0 3458.0,6689.0 L 3455.0,6665.0 L 3330.0,6669.0 C 3232.0,6672.0 3200.0,6676.0 3180.0,6690.0 C 3166.0,6699.0 3146.0,6710.0 3135.0,6713.0 C 3124.0,6716.0 3086.0,6730.0 3051.0,6745.0 C 2989.0,6771.0 2983.0,6772.0 2846.0,6766.0 C 2661.0,6757.0 2645.0,6757.0 2510.0,6761.0 C 2420.0,6764.0 2385.0,6761.0 2347.0,6747.0 C 2272.0,6720.0 2207.0,6725.0 2035.0,6769.0 C 2019.0,6773.0 1980.0,6774.0 1950.0,6771.0 C 1883.0,6764.0 1784.0,6779.0 1750.0,6802.0 C 1736.0,6811.0 1707.0,6822.0 1685.0,6826.0 C 1663.0,6830.0 1624.0,6843.0 1598.0,6856.0 C 1572.0,6869.0 1538.0,6880.0 1522.0,6880.0 C 1506.0,6880.0 1474.0,6886.0 1449.0,6894.0 C 1381.0,6916.0 1051.0,6920.0 930.0,6900.0" fill="pink"/>
</svg>

<?xml version="1.0" standalone="no"?>
<!DOCTYPE svg PUBLIC "-//W3C//DTD SVG 20010904//EN"
 "http://www.w3.org/TR/2001/REC-SVG-20010904/DTD/svg10.dtd">
<svg version="1.0" xmlns="http://www.w3.org/2000/svg"
 width="1024.000000pt" height="1024.000000pt" viewBox="0 0 1024.000000 1024.000000"
 preserveAspectRatio="xMidYMid meet">
<metadata>
Created by potrace 1.10, written by Peter Selinger 2001-2011
</metadata>
<g transform="translate(0.000000,1024.000000) scale(0.100000,-0.100000)"
fill="#000000" stroke="none">
<path d="M930 6900 c-83 -13 -103 -20 -148 -53 -29 -22 -58 -46 -65 -56 -6 -9
-27 -23 -46 -31 -50 -20 -66 -65 -46 -132 8 -28 24 -66 34 -84 24 -40 40 -126
34 -176 -6 -42 -34 -68 -119 -111 -28 -14 -64 -40 -80 -57 -32 -35 -153 -95
-212 -106 -20 -4 -67 -20 -104 -36 -37 -15 -88 -31 -113 -35 -63 -8 -72 -22
-50 -79 9 -24 27 -57 40 -72 12 -15 49 -78 81 -141 66 -127 94 -151 180 -151
94 0 169 -63 189 -160 4 -19 22 -57 41 -85 22 -33 37 -71 44 -110 13 -75 26
-105 43 -105 18 0 49 -34 40 -44 -4 -3 3 -13 15 -22 15 -10 22 -26 22 -47 0
-25 -12 -43 -62 -92 -85 -82 -129 -140 -122 -159 3 -9 12 -16 20 -16 22 0 17
-70 -7 -109 -15 -25 -18 -40 -11 -55 5 -12 7 -51 4 -88 -5 -71 -15 -90 -76
-131 -20 -14 -25 -24 -20 -41 3 -13 1 -27 -5 -30 -23 -15 -9 -34 40 -54 57
-24 60 -41 9 -58 -45 -15 -63 -41 -56 -84 5 -29 1 -40 -26 -67 l-31 -32 29 -6
c16 -3 48 -15 72 -26 23 -10 51 -19 61 -19 23 0 71 -37 71 -55 0 -23 -60 -64
-118 -81 -73 -21 -115 -53 -129 -98 -16 -53 14 -142 67 -196 24 -25 30 -39 30
-74 0 -41 2 -45 40 -64 47 -23 52 -12 20 40 -28 46 -25 79 9 113 26 24 36 27
71 22 23 -3 58 -17 79 -31 22 -16 51 -26 72 -26 18 0 52 -6 74 -14 22 -8 85
-17 140 -21 93 -6 102 -5 128 15 15 12 27 28 27 35 0 8 13 15 33 17 24 2 33 8
35 24 5 38 34 54 98 54 220 0 283 -5 306 -26 39 -36 55 -36 62 -3 5 26 9 29
28 24 54 -15 68 -28 68 -60 0 -39 8 -46 102 -94 53 -27 73 -43 73 -57 0 -16 9
-20 55 -25 30 -4 68 -12 85 -18 33 -14 75 -7 75 12 0 19 -21 37 -42 37 -40 0
-16 29 36 44 74 22 77 38 16 99 -27 27 -50 54 -50 58 0 15 18 10 47 -15 16
-13 40 -26 53 -28 21 -2 25 -9 25 -35 0 -51 14 -58 94 -45 134 23 159 15 130
-39 -10 -19 -9 -19 10 -9 11 6 28 24 36 40 18 35 46 39 99 13 45 -21 90 -9
196 52 41 23 92 48 112 55 42 13 68 43 68 77 0 28 -4 28 -38 3 -38 -28 -92
-38 -92 -17 0 9 10 17 23 19 14 2 23 10 23 23 1 11 2 25 3 31 1 6 18 14 40 18
21 3 44 12 51 21 6 8 31 25 55 39 43 23 44 23 61 5 11 -13 24 -17 40 -13 31 8
31 -9 0 -26 -22 -11 -23 -15 -10 -27 18 -19 18 -42 -2 -64 -10 -11 -13 -23 -7
-33 10 -18 23 -10 43 27 23 46 62 60 147 55 60 -4 77 -9 89 -26 17 -24 131
-82 163 -82 12 0 38 -7 59 -16 50 -22 91 -18 122 11 49 47 184 71 226 41 13
-10 19 -27 19 -53 0 -33 3 -38 26 -41 14 -2 31 4 39 12 16 20 86 21 124 1 15
-8 38 -15 50 -15 25 0 145 37 160 49 6 5 34 12 61 16 28 4 97 24 155 45 145
54 197 64 224 47 13 -9 29 -11 41 -6 43 17 91 10 124 -18 55 -48 85 -79 119
-121 31 -39 37 -42 83 -42 27 0 49 -4 49 -10 0 -5 15 -17 33 -25 17 -9 55 -29
82 -45 28 -16 54 -30 58 -30 5 0 30 23 57 50 27 28 53 50 59 50 6 0 11 14 11
30 0 30 6 34 46 31 11 -1 37 12 58 29 34 26 47 30 102 30 57 0 65 -3 86 -29
13 -16 48 -48 78 -72 30 -23 62 -51 71 -62 13 -16 23 -18 53 -13 30 6 53 1
114 -24 101 -43 155 -38 215 20 23 22 46 40 52 40 6 0 22 11 35 25 13 14 27
25 32 25 5 0 38 -13 73 -30 35 -16 76 -30 90 -30 37 0 42 -25 9 -53 -24 -21
-33 -23 -63 -15 -20 5 -56 12 -80 15 -39 5 -44 4 -38 -11 4 -10 7 -35 7 -57 0
-21 4 -39 8 -39 5 0 29 13 53 30 51 34 102 38 189 15 79 -21 105 -19 142 14
45 39 92 61 159 77 35 8 87 32 131 61 66 43 78 47 126 45 33 -1 64 -9 80 -20
75 -52 113 -58 132 -21 6 10 16 16 24 13 7 -3 24 12 39 35 15 23 46 50 69 62
38 19 46 20 102 9 93 -18 96 -20 106 -46 12 -30 40 -31 66 -3 16 18 26 20 72
14 34 -4 94 0 160 10 150 23 144 21 196 60 38 30 54 36 86 34 37 -3 42 0 67
36 37 55 51 64 102 65 26 0 57 8 78 21 22 14 44 20 64 17 36 -6 54 19 45 63
-3 16 -1 29 6 31 8 3 7 11 -1 27 -17 32 -5 95 26 132 38 45 58 52 91 35 57
-30 88 1 99 99 7 59 18 85 38 85 10 0 13 8 9 28 -4 21 3 38 31 75 25 33 34 53
29 65 -17 39 4 86 81 183 41 51 62 68 95 78 33 10 45 20 58 49 49 108 121 146
194 103 17 -11 36 -18 40 -15 5 4 18 -2 28 -11 21 -19 35 -6 25 26 -10 30 27
65 91 85 30 9 59 23 65 30 16 20 53 17 91 -6 44 -27 49 -26 92 15 31 29 35 38
26 55 -6 11 -18 20 -26 20 -15 0 -14 10 7 66 11 30 54 36 84 12 14 -11 25 -26
25 -34 0 -8 7 -14 15 -14 9 0 15 -9 15 -24 0 -31 16 -42 36 -25 11 9 14 22 10
44 -8 42 0 47 42 29 28 -12 37 -12 44 -2 11 19 10 28 -4 28 -37 1 -106 110
-95 150 6 22 4 22 -42 17 -45 -5 -59 -1 -99 29 -2 1 2 13 9 25 7 13 13 38 15
57 2 29 -1 33 -27 39 -16 3 -29 7 -29 10 0 11 30 61 44 72 23 19 17 209 -7
223 -9 5 -17 20 -17 33 0 13 -6 25 -12 28 -8 3 3 21 30 49 23 24 42 48 42 53
0 4 7 16 16 26 9 10 19 32 24 51 4 18 11 40 14 49 5 12 -1 20 -23 29 -37 15
-61 1 -61 -35 0 -44 -63 -75 -73 -35 -8 29 -42 25 -69 -9 -42 -52 -131 -81
-144 -46 -4 10 -21 14 -62 13 -74 -2 -168 38 -178 76 -3 13 -12 27 -20 30 -8
3 -14 12 -14 21 0 21 -37 19 -49 -4 -6 -10 -23 -24 -39 -30 -37 -16 -69 -3
-119 46 -21 21 -52 43 -68 48 -26 9 -30 16 -33 54 -3 42 -4 43 -33 37 -17 -3
-43 -15 -59 -26 -31 -22 -60 -26 -60 -9 0 6 11 25 26 44 29 39 15 59 -19 27
-12 -11 -37 -27 -54 -36 -29 -15 -36 -15 -68 -2 -19 8 -35 22 -35 30 0 9 -6
16 -14 16 -7 0 -29 17 -48 38 -35 39 -51 44 -238 72 -36 5 -78 22 -122 49 -69
42 -108 52 -108 27 0 -34 -206 -22 -324 19 -94 32 -190 35 -206 5 -16 -30 -66
-51 -115 -49 -25 2 -48 0 -51 -4 -8 -8 -72 18 -95 39 -11 9 -42 16 -86 18 -53
2 -80 9 -115 30 -56 33 -168 61 -276 70 l-83 7 18 -25 c29 -39 53 -50 70 -33
8 8 25 12 37 10 18 -4 22 -10 19 -28 -4 -17 4 -29 30 -50 20 -14 44 -25 55
-23 22 4 52 -18 52 -38 0 -8 -8 -14 -19 -14 -10 0 -39 -11 -65 -25 -61 -33
-70 -32 -84 9 -12 32 -15 34 -55 33 -54 -2 -101 25 -92 53 3 11 1 28 -5 40
-13 25 -65 27 -91 4 -9 -8 -46 -20 -81 -26 -79 -14 -109 1 -127 63 -10 31 -15
38 -25 30 -9 -8 -59 -8 -167 -2 -164 10 -167 11 -246 48 -54 26 -101 25 -133
-2 -27 -23 -58 -26 -95 -10 -21 8 -58 15 -84 15 -25 0 -75 9 -111 21 -38 12
-77 18 -94 15 -16 -4 -34 -2 -40 3 -34 26 -271 44 -401 30 -158 -18 -152 -16
-186 -64 -17 -24 -43 -48 -58 -53 -30 -10 -132 0 -176 18 -16 7 -66 16 -110
21 -44 5 -98 19 -121 29 -22 11 -61 20 -87 20 -25 0 -71 9 -100 20 -49 18 -57
19 -82 6 -46 -24 -123 -31 -143 -13 -9 9 -55 25 -102 38 -100 26 -218 23 -251
-7 -16 -14 -32 -16 -99 -11 -79 5 -81 5 -110 -24 -27 -27 -32 -29 -84 -23 -52
6 -54 5 -58 -17 l-3 -24 -125 4 c-98 3 -130 7 -150 21 -14 9 -34 20 -45 23
-11 3 -49 17 -84 32 -62 26 -68 27 -205 21 -185 -9 -201 -9 -336 -5 -90 3
-125 0 -163 -14 -75 -27 -140 -22 -312 22 -16 4 -55 5 -85 2 -67 -7 -166 8
-200 31 -14 9 -43 20 -65 24 -22 4 -61 17 -87 30 -26 13 -60 24 -76 24 -16 0
-48 6 -73 14 -68 22 -398 26 -519 6z"/>
</g>
</svg>
